public/assets/brands/ricoh.svg

<svg fill="none" height="212" viewBox="0 0 212 212" width="212" xmlns="http://www.w3.org/2000/svg" xmlns:xlink="http://www.w3.org/1999/xlink"><clipPath id="a"><path d="m0 0h212v212h-212z"/></clipPath><g clip-path="url(#a)"><path d="m206 0h-200c-3.31371 0-6 2.68629-6 6v200c0 3.314 2.68629 6 6 6h200c3.314 0 6-2.686 6-6v-200c0-3.31371-2.686-6-6-6z" fill="#f5f5f5"/><g fill="#000"><path d="m88.85 106.27c0 5.3 3.92 9.2 10.47 9.2 2.76 0 5.37-.44 8.07-1.7l2.45 3.35c-3.39 1.79-6.65 2.73-11.65 2.73-10.45 0-18.13-5.03-18.13-13.58 0-8.5399 7.68-13.5799 18.13-13.5799 5.02 0 7.89.74 11.43 2.25l-2.51 3.85c-2.68-1.42-5-1.72-7.76-1.72-6.55 0-10.47 3.8899-10.47 9.1899"/><path d="m128.73 115.62c-5.57 0-8.64-4.18-8.64-9.36s3.07-9.3599 8.64-9.3599 8.64 4.1799 8.64 9.3599-3.08 9.36-8.64 9.36zm0-22.9399c-10.12 0-17.42 5.04-17.42 13.5799 0 8.54 7.3 13.59 17.42 13.59s17.42-5.03 17.42-13.59c0-8.5599-7.3-13.5799-17.42-13.5799z"/><path d="m172.45 108.24v10.93h8.36v-25.7999h-8.36v9.8299h-12.78v-9.8299h-8.35v25.7999h8.35v-10.93z"/><path d="m74.99 93.3701h-8.8v25.7899h8.8z"/><path d="m40.94 105.18v2.46c4.28 3.35 8.13 7.22 11.45 11.52h9.86c-3.43-4.03-8.69-8.82-12.57-11.22 4.55-.19 9.62-2.03 9.62-7.25 0-6.7-7.15-7.92-14.39-7.92-5.92 0-11.37.27-14.63.54v25.86h8.21v-21.97c2.14-.24 4.3-.36 6.45-.34 4.23 0 6.37 1.4 6.37 3.84 0 2.08-.88 4.58-10.38 4.49h.01z"/></g></g></svg>

<svg width="212" height="212" viewBox="0 0 212 212" fill="none" xmlns="http://www.w3.org/2000/svg">
<g clip-path="url(#clip0_142_2206)">
<path d="M206 0H6C2.68629 0 0 2.68629 0 6V206C0 209.314 2.68629 212 6 212H206C209.314 212 212 209.314 212 206V6C212 2.68629 209.314 0 206 0Z" fill="#F5F5F5"/>
<path d="M88.85 106.27C88.85 111.57 92.77 115.47 99.32 115.47C102.08 115.47 104.69 115.03 107.39 113.77L109.84 117.12C106.45 118.91 103.19 119.85 98.19 119.85C87.74 119.85 80.06 114.82 80.06 106.27C80.06 97.7301 87.74 92.6901 98.19 92.6901C103.21 92.6901 106.08 93.4301 109.62 94.9401L107.11 98.7901C104.43 97.3701 102.11 97.0701 99.35 97.0701C92.8 97.0701 88.88 100.96 88.88 106.26" fill="black"/>
<path d="M128.73 115.62C123.16 115.62 120.09 111.44 120.09 106.26C120.09 101.08 123.16 96.9001 128.73 96.9001C134.3 96.9001 137.37 101.08 137.37 106.26C137.37 111.44 134.29 115.62 128.73 115.62ZM128.73 92.6801C118.61 92.6801 111.31 97.7201 111.31 106.26C111.31 114.8 118.61 119.85 128.73 119.85C138.85 119.85 146.15 114.82 146.15 106.26C146.15 97.7001 138.85 92.6801 128.73 92.6801Z" fill="black"/>
<path d="M172.45 108.24V119.17H180.81V93.3701H172.45V103.2H159.67V93.3701H151.32V119.17H159.67V108.24H172.45Z" fill="black"/>
<path d="M74.99 93.3701H66.19V119.16H74.99V93.3701Z" fill="black"/>
<path d="M40.94 105.18V107.64C45.22 110.99 49.07 114.86 52.39 119.16H62.25C58.82 115.13 53.56 110.34 49.68 107.94C54.23 107.75 59.3 105.91 59.3 100.69C59.3 93.99 52.15 92.77 44.91 92.77C38.99 92.77 33.54 93.04 30.28 93.31V119.17H38.49V97.2C40.63 96.96 42.79 96.84 44.94 96.86C49.17 96.86 51.31 98.26 51.31 100.7C51.31 102.78 50.43 105.28 40.93 105.19H40.94V105.18Z" fill="black"/>
</g>
<defs>
<clipPath id="clip0_142_2206">
<rect width="212" height="212" fill="white"/>
</clipPath>
</defs>
</svg>
